src/assets/skills/d3-nvd3.svg

<svg height="100pt" viewBox="0 0 100 100" width="100pt" xmlns="http://www.w3.org/2000/svg"><path d="m0 0h100v100h-100z"/><path d="m53.827 49.998c0-18.322-14.851-33.177-33.177-33.177h-5.65v14.584h5.652c10.27 0 18.593 8.323 18.593 18.593s-8.323 18.593-18.593 18.593h-5.652v14.584h5.652c18.32 0 33.173-14.855 33.173-33.177zm31.173-12.941c0-11.176-9.063-20.236-20.236-20.236h-23.333c5.746 3.638 10.375 8.559 13.564 14.38l.103.204h9.666c3.117 0 5.652 2.531 5.652 5.652s-2.535 5.652-5.652 5.652h-5.652c.912 4.819.912 9.765 0 14.584h5.652c3.115 0 5.652 2.529 5.652 5.652 0 3.124-2.535 5.653-5.652 5.653h-9.666c-3.292 6.024-7.921 10.943-13.508 14.487l-.159.094h23.333c4.727 0 9.308-1.656 12.943-4.681 8.584-7.146 9.758-19.904 2.61-28.496 2.911-3.482 4.679-8.008 4.681-12.947z" fill="#fff"/></svg>

<?xml version="1.0" encoding="UTF-8" standalone="no"?><!-- Generator: Gravit.io --><svg xmlns="http://www.w3.org/2000/svg" xmlns:xlink="http://www.w3.org/1999/xlink" style="isolation:isolate" viewBox="0 0 100 100" width="100pt" height="100pt"><rect x="0" y="0" width="100" height="100" transform="matrix(1,0,0,1,0,0)" fill="rgb(0,0,0)"/><path d=" M 53.827 49.998 C 53.827 31.676 38.976 16.821 20.65 16.821 L 15 16.821 L 15 31.405 L 20.652 31.405 C 30.922 31.405 39.245 39.728 39.245 49.998 C 39.245 60.268 30.922 68.591 20.652 68.591 L 15 68.591 L 15 83.175 L 20.652 83.175 C 38.972 83.175 53.825 68.32 53.825 49.998 L 53.827 49.998 Z  M 85 37.057 C 85 25.881 75.937 16.821 64.764 16.821 L 41.431 16.821 C 47.177 20.459 51.806 25.38 54.995 31.201 L 55.098 31.405 L 64.764 31.405 C 67.881 31.405 70.416 33.936 70.416 37.057 C 70.416 40.178 67.881 42.709 64.764 42.709 L 59.112 42.709 C 60.024 47.528 60.024 52.474 59.112 57.293 L 64.764 57.293 C 67.879 57.293 70.416 59.822 70.416 62.945 C 70.416 66.069 67.881 68.598 64.764 68.598 L 55.098 68.598 C 51.806 74.622 47.177 79.541 41.59 83.085 L 41.431 83.179 L 64.764 83.179 C 69.491 83.179 74.072 81.523 77.707 78.498 C 86.291 71.352 87.465 58.594 80.317 50.002 C 83.228 46.52 84.996 41.994 84.998 37.055 L 84.998 37.055 L 85 37.057 Z " fill="rgb(255,255,255)"/></svg>
